tools/download-figma-icons/icons/outlined-medium/law.svg

<svg width="24" height="24" viewBox="0 0 24 24" fill="none" xmlns="http://www.w3.org/2000/svg">
<path fill-rule="evenodd" clip-rule="evenodd" d="M12.0886 8.81155C12.0908 8.8153 12.0931 8.81905 12.0946 8.8228L13.2263 10.8066L14.3603 12.7918L18.2926 10.4946L14.8853 4.52605L10.9538 6.8233L12.0886 8.81155ZM7.75354 12.218L8.15629 12.89L11.5553 10.904L11.1675 10.2238L7.75354 12.218ZM1.78579 16.4878C1.84129 16.5028 1.94854 16.517 2.06254 16.4503L6.86104 13.6468L6.45754 12.9748L1.68829 15.7618C1.50454 15.8698 1.44229 16.109 1.54879 16.2965C1.60804 16.3985 1.68904 16.4623 1.78579 16.4878ZM8.51557 5.6038L8.90332 6.2833L14.7826 2.84905L15.4478 2.46055L15.0593 1.77955L8.51557 5.6038ZM20.7301 11.7148L20.3416 11.0345L19.6913 11.414L19.6898 11.4155L14.4623 14.4688L13.7971 14.8588L14.1848 15.5383L20.7301 11.7148ZM14.2876 17.2154C14.1129 17.3174 13.9074 17.3437 13.7146 17.2927C13.5211 17.2409 13.3569 17.1142 13.2579 16.9402L12.1261 14.9579C11.9221 14.6002 12.0444 14.1457 12.3984 13.9379L13.0644 13.5487L12.2986 12.2077L2.82012 17.7449C2.52987 17.9144 2.20812 18.0007 1.88262 18.0007C1.72062 18.0007 1.55787 17.9797 1.39737 17.9362C0.911371 17.8072 0.504871 17.4929 0.254371 17.0534C-0.266879 16.1422 0.0406206 14.9872 0.930871 14.4667L10.4229 8.92116L9.65787 7.58016L9.00612 7.96116C8.83212 8.06241 8.62437 8.08866 8.43312 8.03766C8.23962 7.98591 8.07537 7.85916 7.97637 7.68516L6.84462 5.70291C6.64062 5.34516 6.76287 4.89066 7.11687 4.68291L14.9566 0.102656C15.1314 -9.4438e-05 15.3376 -0.0248444 15.5296 0.0261556C15.7231 0.0779056 15.8881 0.204656 15.9864 0.378656L17.1189 2.36241C17.3236 2.71866 17.2014 3.17391 16.8466 3.38091L16.1814 3.77016L19.5871 9.73866L20.2396 9.35766C20.4129 9.25566 20.6199 9.22941 20.8119 9.28041C21.0054 9.33291 21.1704 9.45966 21.2686 9.63366L22.4011 11.6174C22.6059 11.9737 22.4836 12.4289 22.1289 12.6359L14.2876 17.2154ZM22.5001 22.5H14.2486V21.75H22.5001V22.5ZM14.2486 20.25H22.5001C23.3273 20.25 24.0001 20.9228 24.0001 21.75V22.5C24.0001 23.3273 23.3273 24 22.5001 24H14.2486C13.4221 24 12.7486 23.3273 12.7486 22.5V21.75C12.7486 20.9228 13.4221 20.25 14.2486 20.25Z" fill="black"/>
</svg>

<svg width="24" height="24" viewBox="0 0 24 24" fill="none" xmlns="http://www.w3.org/2000/svg"><path fill-rule="evenodd" clip-rule="evenodd" d="m12.089 8.812.006.01 1.131 1.985 1.134 1.985 3.933-2.297-3.408-5.969-3.931 2.297 1.135 1.989Zm-4.335 3.406.402.672 3.4-1.986-.388-.68-3.414 1.994Zm-5.968 4.27a.358.358 0 0 0 .277-.038l4.798-2.803-.403-.672-4.77 2.787a.395.395 0 0 0-.14.535.39.39 0 0 0 .238.19Zm6.73-10.884.387.68 5.88-3.435.665-.388-.389-.681-6.543 3.824Zm12.214 6.11-.388-.68-.65.38-.002.002-5.228 3.053-.665.39.388.68 6.545-3.824Zm-6.442 5.501a.752.752 0 0 1-1.03-.275l-1.132-1.982a.751.751 0 0 1 .272-1.02l.666-.39-.765-1.34-9.479 5.537a1.854 1.854 0 0 1-1.423.191 1.857 1.857 0 0 1-1.143-.883 1.902 1.902 0 0 1 .677-2.586l9.492-5.546-.765-1.34-.652.38a.747.747 0 0 1-1.03-.276L6.845 5.703a.751.751 0 0 1 .272-1.02l7.84-4.58a.75.75 0 0 1 1.03.276l1.132 1.983a.748.748 0 0 1-.272 1.019l-.666.39 3.406 5.968.653-.381a.75.75 0 0 1 1.029.276l1.132 1.983a.748.748 0 0 1-.272 1.019l-7.841 4.58ZM22.5 22.5h-8.25v-.75h8.25v.75Zm-8.251-2.25H22.5c.827 0 1.5.673 1.5 1.5v.75c0 .827-.673 1.5-1.5 1.5h-8.25c-.827 0-1.5-.673-1.5-1.5v-.75c0-.827.673-1.5 1.5-1.5Z" fill="currentColor"/></svg>
